build/img/footer-logo.svg

<svg width="98" height="98" viewBox="0 0 98 98" fill="none" xmlns="http://www.w3.org/2000/svg">
<path d="M48.9346 38.8734C46.256 38.8734 44.1 36.7174 44.1 34.0388C44.1 31.3601 46.256 29.2041 48.9346 29.2041C51.6133 29.2041 53.7693 31.3601 53.7693 34.0388C53.7693 36.7174 51.6133 38.8734 48.9346 38.8734Z" fill="white"/>
<path d="M48.9347 19.0774C40.7027 19.0774 33.9733 25.8067 33.9733 34.0387C34.0387 42.3361 40.7027 49.0001 49 49.0001C57.232 49.0001 63.9613 42.2707 63.9613 34.0387C63.9613 25.8067 57.232 19.0774 48.9347 19.0774ZM48.9347 44.2307C43.316 44.2307 38.7427 39.6574 38.7427 34.0387C38.7427 28.4201 43.316 23.8467 48.9347 23.8467C54.5533 23.8467 59.1267 28.4201 59.1267 34.0387C59.1267 39.6574 54.5533 44.2307 48.9347 44.2307Z" fill="white"/>
<path d="M48.9347 9.80005C35.5413 9.80005 24.696 20.6454 24.696 34.0387C24.696 47.432 35.5413 58.2774 48.9347 58.2774C62.328 58.2774 73.1733 47.432 73.1733 34.0387C73.2387 20.6454 62.3933 9.80005 48.9347 9.80005C49 9.80005 48.9347 9.80005 48.9347 9.80005ZM48.9347 53.704C38.0893 53.704 29.2693 44.884 29.2693 34.0387C29.2693 23.1934 38.0893 14.3734 48.9347 14.3734C59.78 14.3734 68.6 23.1934 68.6 34.0387C68.6 44.884 59.78 53.704 48.9347 53.704Z" fill="white"/>
<path d="M20.5146 61.8706H26.7866V57.7546H9.66931V61.8706H16.0066V81.34H20.5146V61.8706Z" fill="white"/>
<path d="M30.0534 63.7C27.3094 63.7 25.3494 64.5493 24.108 66.3133L23.7814 66.7053L27.244 69.3186L27.5707 68.8613C27.9627 68.208 28.5507 67.816 30.2494 67.816C32.8627 67.816 33.124 68.5346 33.124 69.3839V70.56H29.0734C25.0227 70.56 23.1934 73.2386 23.1934 75.9173C23.1934 79.2493 25.7414 81.4706 29.5307 81.4706C31.164 81.4706 32.34 81.2093 33.124 80.556V81.2746H37.5014V69.5146C37.436 65.66 34.9534 63.7 30.0534 63.7ZM33.0587 74.3493V75.068C33.0587 77.0933 32.6667 77.42 29.8574 77.42C28.224 77.42 27.244 76.8319 27.244 75.8519C27.244 74.872 28.028 74.4146 29.596 74.4146H33.0587V74.3493Z" fill="white"/>
<path d="M43.0547 65.0066V63.8959H38.7427V81.3399H43.0547V70.9519C43.0547 68.7959 44.4267 68.0119 45.7333 68.0119C46.452 68.0119 47.1053 68.2733 47.628 68.7306L48.02 68.9919L51.0907 65.3333L50.6987 65.0066C48.4773 63.2426 45.3413 63.2426 43.0547 65.0066Z" fill="white"/>
<path d="M59.976 63.8961V65.0067C58.9307 64.1574 57.624 63.7 56.252 63.7C54.4227 63.6347 52.6587 64.484 51.4827 65.9214C50.4373 67.3587 50.1107 68.1427 50.1107 72.6507C50.1107 77.1587 50.372 77.9427 51.4173 79.3147C52.5933 80.752 54.3573 81.536 56.1867 81.536C57.5587 81.536 58.8653 81.0787 59.9107 80.2294V80.752C59.9107 82.6467 58.6693 83.8227 56.644 83.8227C55.5333 83.7574 54.5533 83.3 53.7693 82.4507L53.4427 82.124L50.1107 84.8027L50.4373 85.1947C51.94 87.024 54.2267 88.0694 56.5787 88.1347C60.1067 88.1347 64.2227 86.1094 64.2227 80.4254V63.8961H59.976ZM57.232 77.224C56.3827 77.224 55.5333 76.832 55.0107 76.1787C54.5533 75.5907 54.488 75.3294 54.488 72.6507C54.488 69.972 54.5533 69.7107 55.0107 69.1227C55.9907 67.8814 57.7547 67.6854 58.996 68.6654C59.192 68.796 59.3227 68.9267 59.4533 69.1227C59.9107 69.7107 59.976 70.0374 59.976 72.6507C59.976 75.264 59.9107 75.5907 59.4533 76.1787C58.9307 76.832 58.0813 77.224 57.232 77.224Z" fill="white"/>
<path d="M72.716 63.7C69.188 63.7 65.3987 66.0519 65.3987 72.6506C65.3987 80.6866 70.8867 81.536 73.2387 81.536C75.656 81.6013 78.008 80.556 79.576 78.7266L79.9027 78.3346L76.7667 75.656L76.44 75.9826C75.5907 76.832 74.4147 77.3546 73.2387 77.42C71.2134 77.42 70.0374 76.3093 69.8414 74.4146H80.0987V71.148C80.2294 67.1626 77.0934 63.8306 73.1734 63.7C72.9774 63.7 72.8467 63.7 72.716 63.7ZM75.656 70.6253H69.8414C70.0374 68.8613 71.148 67.816 72.7814 67.816C74.4147 67.816 75.3947 68.8613 75.656 70.6253Z" fill="white"/>
<path d="M85.9787 63.896V57.7546H81.6667V63.896H80.0333V67.424H81.6667V76.7666C81.6667 79.5106 83.496 81.34 86.1747 81.34H88.396V77.1586H86.632C86.1747 77.1586 85.9787 77.0933 85.9787 76.44V67.424H88.396V63.896H85.9787Z" fill="white"/>
<path d="M19.3387 83.0386C18.9467 82.7773 18.4893 82.6466 18.032 82.6466H15.9413V88.004H17.1827V86.1093H18.1627C19.1427 86.1746 19.9267 85.3906 19.992 84.4106C19.992 84.4106 19.992 84.4106 19.992 84.3453C19.992 83.888 19.796 83.3653 19.3387 83.0386ZM18.1627 84.9333H17.248V83.8226H18.1627C18.2933 83.8226 18.4893 83.8226 18.62 83.9533C18.7507 84.084 18.8813 84.2146 18.8813 84.4106C18.8813 84.7373 18.62 84.9986 18.2933 84.9986C18.1627 84.9333 18.1627 84.9333 18.1627 84.9333ZM24.1733 82.5813C23.4547 82.5813 22.736 82.9733 22.344 83.6266C22.148 83.9533 22.0827 84.2146 22.0827 85.3253C22.0827 86.436 22.148 86.6973 22.344 87.024C22.9973 88.004 24.304 88.3306 25.284 87.6773C25.5453 87.4813 25.8067 87.2853 25.9373 87.024C26.1333 86.6973 26.1987 86.436 26.1987 85.3253C26.1987 84.2146 26.1333 83.9533 25.9373 83.6266C25.6107 82.9733 24.892 82.5813 24.1733 82.5813ZM24.8267 86.5666C24.5 86.8933 23.9773 86.9586 23.6507 86.632L23.5853 86.5666C23.4547 86.3706 23.3893 86.3053 23.3893 85.3253C23.3893 84.3453 23.4547 84.28 23.5853 84.084C23.912 83.7573 24.4347 83.692 24.7613 84.0186L24.8267 84.084C24.9573 84.28 25.0227 84.3453 25.0227 85.3253C25.0227 86.3053 24.9573 86.3706 24.8267 86.5666ZM28.7467 88.004H29.988V82.6466H28.7467V88.004ZM35.672 85.652L33.712 82.6466H32.6667V88.004H33.908V84.9986L35.868 88.004H36.9787V82.6466H35.7373L35.672 85.652ZM39.0693 82.6466V83.7573H40.5067V88.004H41.748V83.7573H43.12V82.6466H39.0693Z" fill="white"/>
</svg>

<svg width="98" height="98" fill="none" xmlns="http://www.w3.org/2000/svg"><path d="M48.935 38.873A4.824 4.824 0 0 1 44.1 34.04a4.824 4.824 0 0 1 4.835-4.835 4.824 4.824 0 0 1 4.834 4.835 4.824 4.824 0 0 1-4.834 4.834z" fill="#fff"/><path d="M48.935 19.077c-8.232 0-14.962 6.73-14.962 14.962C34.04 42.336 40.703 49 49 49c8.232 0 14.961-6.73 14.961-14.961 0-8.232-6.729-14.962-15.026-14.962zm0 25.154c-5.619 0-10.192-4.574-10.192-10.192 0-5.619 4.573-10.192 10.192-10.192 5.618 0 10.192 4.573 10.192 10.192 0 5.618-4.574 10.192-10.192 10.192z" fill="#fff"/><path d="M48.935 9.8C35.54 9.8 24.696 20.645 24.696 34.04c0 13.393 10.845 24.238 24.239 24.238 13.393 0 24.238-10.845 24.238-24.238C73.24 20.645 62.393 9.8 48.935 9.8c.065 0 0 0 0 0zm0 43.904c-10.846 0-19.666-8.82-19.666-19.665 0-10.846 8.82-19.666 19.666-19.666 10.845 0 19.665 8.82 19.665 19.666 0 10.845-8.82 19.665-19.665 19.665zM20.515 61.87h6.272v-4.115H9.669v4.116h6.338V81.34h4.508V61.87z" fill="#fff"/><path d="M30.053 63.7c-2.744 0-4.704.85-5.945 2.613l-.327.392 3.463 2.614.327-.458c.392-.653.98-1.045 2.678-1.045 2.614 0 2.875.719 2.875 1.568v1.176h-4.05c-4.051 0-5.88 2.679-5.88 5.357 0 3.332 2.547 5.554 6.337 5.554 1.633 0 2.809-.262 3.593-.915v.719h4.377v-11.76c-.065-3.855-2.548-5.815-7.448-5.815zm3.006 10.65v.718c0 2.025-.392 2.352-3.202 2.352-1.633 0-2.613-.588-2.613-1.568 0-.98.784-1.437 2.352-1.437h3.463v-.066zM43.055 65.007v-1.111h-4.312V81.34h4.312V70.952c0-2.156 1.372-2.94 2.678-2.94.719 0 1.372.261 1.895.719l.392.26 3.07-3.658-.391-.326c-2.222-1.764-5.358-1.764-7.644 0zM59.976 63.896v1.11a5.878 5.878 0 0 0-3.724-1.306c-1.83-.065-3.593.784-4.77 2.221-1.045 1.438-1.371 2.222-1.371 6.73 0 4.508.261 5.292 1.306 6.664 1.176 1.437 2.94 2.221 4.77 2.221a5.879 5.879 0 0 0 3.724-1.307v.523c0 1.895-1.242 3.07-3.267 3.07-1.11-.065-2.09-.522-2.875-1.371l-.326-.327-3.332 2.679.326.392c1.503 1.829 3.79 2.874 6.142 2.94 3.528 0 7.644-2.026 7.644-7.71V63.896h-4.247zm-2.744 13.328c-.85 0-1.699-.392-2.221-1.045-.458-.588-.523-.85-.523-3.528 0-2.679.065-2.94.523-3.528a2.818 2.818 0 0 1 3.985-.458c.196.131.327.262.457.458.458.588.523.914.523 3.528 0 2.613-.065 2.94-.523 3.528-.522.653-1.372 1.045-2.221 1.045zM72.716 63.7c-3.528 0-7.317 2.352-7.317 8.95 0 8.037 5.488 8.886 7.84 8.886a8.104 8.104 0 0 0 6.337-2.81l.327-.391-3.136-2.679-.327.327a4.994 4.994 0 0 1-3.201 1.437c-2.026 0-3.202-1.11-3.398-3.005H80.1v-3.267c.13-3.985-3.006-7.317-6.926-7.448h-.457zm2.94 6.925h-5.815c.196-1.764 1.307-2.809 2.94-2.809 1.634 0 2.614 1.045 2.875 2.81zM85.979 63.896v-6.141h-4.312v6.141h-1.634v3.528h1.634v9.343c0 2.744 1.829 4.573 4.508 4.573h2.221v-4.181h-1.764c-.457 0-.653-.066-.653-.719v-9.016h2.417v-3.528h-2.417zM19.339 83.039a2.356 2.356 0 0 0-1.307-.392h-2.09v5.357h1.24v-1.895h.98c.98.066 1.765-.718 1.83-1.698v-.066c0-.457-.196-.98-.653-1.306zm-1.176 1.894h-.915v-1.11h.915c.13 0 .326 0 .457.13.13.131.261.262.261.458a.586.586 0 0 1-.588.588l-.13-.066zm6.01-2.352c-.718 0-1.437.392-1.829 1.046-.196.326-.261.588-.261 1.698 0 1.111.065 1.372.261 1.699.653.98 1.96 1.307 2.94.653.261-.196.523-.392.653-.653.196-.327.262-.588.262-1.699 0-1.11-.066-1.372-.262-1.698-.326-.654-1.045-1.046-1.764-1.046zm.654 3.986c-.327.326-.85.392-1.176.065l-.066-.065c-.13-.196-.196-.262-.196-1.242s.066-1.045.196-1.241c.327-.327.85-.392 1.176-.065l.066.065c.13.196.196.261.196 1.241 0 .98-.066 1.046-.196 1.242zm3.92 1.437h1.241v-5.357h-1.241v5.357zm6.925-2.352l-1.96-3.005h-1.045v5.357h1.241v-3.005l1.96 3.005h1.11v-5.357h-1.24l-.066 3.005zm3.397-3.005v1.11h1.438v4.247h1.241v-4.247h1.372v-1.11h-4.05z" fill="#fff"/></svg>
